packages/tokens/icons/arrowCircle2/size24Px.svg

<svg viewBox="0 0 24 24" fill="none" xmlns="http://www.w3.org/2000/svg" width="1em" height="1em"><path d="M20 13.5C20 13.2239 19.7761 13 19.5 13C19.2239 13 19 13.2239 19 13.5H20ZM17.5 6C17.7761 6 18 5.77614 18 5.5C18 5.22386 17.7761 5 17.5 5V6ZM15.8536 2.14645C15.6583 1.95118 15.3417 1.95118 15.1464 2.14645C14.9512 2.34171 14.9512 2.65829 15.1464 2.85355L15.8536 2.14645ZM18.5 5.5L18.8536 5.85355C18.9473 5.75979 19 5.63261 19 5.5C19 5.36739 18.9473 5.24021 18.8536 5.14645L18.5 5.5ZM15.1464 8.14645C14.9512 8.34171 14.9512 8.65829 15.1464 8.85355C15.3417 9.04881 15.6583 9.04881 15.8536 8.85355L15.1464 8.14645ZM19 13.5C19 17.6421 15.6421 21 11.5 21V22C16.1944 22 20 18.1944 20 13.5H19ZM11.5 21C7.35786 21 4 17.6421 4 13.5H3C3 18.1944 6.80558 22 11.5 22V21ZM4 13.5C4 9.35786 7.35786 6 11.5 6V5C6.80558 5 3 8.80558 3 13.5H4ZM11.5 6H17.5V5H11.5V6ZM15.1464 2.85355L18.1464 5.85355L18.8536 5.14645L15.8536 2.14645L15.1464 2.85355ZM18.1464 5.14645L15.1464 8.14645L15.8536 8.85355L18.8536 5.85355L18.1464 5.14645Z" fill="currentColor"/></svg>

<svg xmlns="http://www.w3.org/2000/svg" fill="none" viewBox="0 0 24 24" width="1em" height="1em"><path fill="currentColor" d="M20 13.5a.5.5 0 0 0-1 0h1ZM17.5 6a.5.5 0 0 0 0-1v1Zm-1.646-3.854a.5.5 0 0 0-.708.708l.708-.708ZM18.5 5.5l.354.354a.5.5 0 0 0 0-.708L18.5 5.5Zm-3.354 2.646a.5.5 0 0 0 .708.708l-.708-.708ZM19 13.5a7.5 7.5 0 0 1-7.5 7.5v1a8.5 8.5 0 0 0 8.5-8.5h-1ZM11.5 21A7.5 7.5 0 0 1 4 13.5H3a8.5 8.5 0 0 0 8.5 8.5v-1ZM4 13.5A7.5 7.5 0 0 1 11.5 6V5A8.5 8.5 0 0 0 3 13.5h1ZM11.5 6h6V5h-6v1Zm3.646-3.146 3 3 .708-.708-3-3-.708.708Zm3 2.292-3 3 .708.708 3-3-.708-.708Z"/></svg>
